X:1

T:Road to Lurgan, The

M:6/8

L:1/8

R:Jig

S:O’Neill – Dance Music of Ireland: 1001 Gems (1907), No. 94

Z:AK/Fiddler’s Companion

K:G

D|G3 B2G|c2A B2G|GBd cAG|F3 DEF|GAG B2G|c2A BAG|ded cAF|G3 G2:|

|:c|BAG AFD|DED FED|BAG AFD|F3 ABc|BAG AFD|DED FED|B/c/dB cAF|G3 G2:|

           

ROAD TO MALVERN.  Old-Time, Breakdown. A Major. A modern composition by West Virginia fiddler Jim Childress. Jim Childress – “Turkey Sag” (2004).

